resources/haticons/SVG/tablet_android.svg

<!-- Generated by IcoMoon.io -->
<svg version="1.1" xmlns="http://www.w3.org/2000/svg" width="24" height="24" viewBox="0 0 24 24">
<title>tablet_android</title>
<path d="M19.266 18.984v-15.984h-14.531v15.984h14.531zM14.016 21.984v-0.984h-4.031v0.984h4.031zM18 0q1.219 0 2.109 0.891t0.891 2.109v18q0 1.219-0.891 2.109t-2.109 0.891h-12q-1.219 0-2.109-0.891t-0.891-2.109v-18q0-1.219 0.891-2.109t2.109-0.891h12z"></path>
</svg>

<svg xmlns="http://www.w3.org/2000/svg" width="24" height="24"><path d="M19.266 18.984V3H4.735v15.984h14.531zm-5.25 3V21H9.985v.984h4.031zM18 0q1.219 0 2.109.891T21 3v18q0 1.219-.891 2.109T18 24H6q-1.219 0-2.109-.891T3 21V3q0-1.219.891-2.109T6 0h12z"/></svg>
